X: 20241
Q: "With boldness and spirit."
M: C|
L: 1/8
K: F
c |\
c>BA>B c2c2 | c4 z2f2 |\
d3d c2B2 | B2A2 z2A2 |\
g2c2 (ce)(d=B) | (c3d) c2zc |\
(G>A)(B>A) G2d2 | c2B2 A2B2 |\
c2d2 c2(fA) | A2G2 z2C2 |
f2f2 f2c2 | f2[f2c2] [f2A2][A2F2] |\
d2B2 G2e2 | f3g f2A2 |\
d2B2G2e2 | f3g f2z |]


